X: 6
T: Richard Dwyer's
R: reel
M: 4/4
L: 1/8
K: Edor
|:E2 BE GABd | AGFD EB B2| BEGE FAdc | Beed e3d |
| B3A GE E2 | FdAG FD D2 | EBGB ABGA| BGED BE E2:||
| e2 Be fe e2| d2 Ad fd d2 | edBA GABA | GEFD BE E2 |
| e2 Be fe e2 | d3B AFDF | E2 (3FGA Beec | dBAF BE E2:||


Tune 1131	Setting 22158

